images/slider2/cl-5.svg

<svg width="134" height="78" viewBox="0 0 134 78" fill="none" xmlns="http://www.w3.org/2000/svg">
<g clip-path="url(#clip0)">
<path d="M29.6704 22.4948L29.4625 23.2743C29.4625 23.2743 34.3465 23.1701 33.5152 26.7039L28.4233 59.7505H50.9737L52.3249 52.164H51.4936C51.4936 52.164 50.6622 57.36 44.6349 57.36H36.1119C36.1119 57.36 33.2021 57.5679 33.8256 54.1388L36.0518 40.8375H42.9721C42.9721 40.8375 46.4018 40.7334 45.2584 45.7215H46.4018L48.2708 33.5616H47.3373C47.3373 33.5616 47.3373 39.1748 42.5575 39.1748H36.331L38.4002 26.8081C38.4002 26.8081 38.2965 24.314 42.3491 24.314H48.5843C48.5843 24.314 53.1568 24.5218 52.7411 28.7828H53.7803L54.819 22.4958H29.6704V22.4948ZM59.5994 22.4429L58.456 29.0938H59.4952C59.4952 24.1056 65.7304 24.3135 65.7304 24.3135H70.6354L65.0027 59.5421H69.8872L75.4711 24.3135H80.9027C85.683 24.3135 84.8517 28.5739 84.8517 28.5739H85.9935L87.0342 22.4429H59.5994ZM84.8517 54.6576L84.436 58.0872C84.436 58.0872 101.163 64.2721 106.779 53.8262C111.975 44.1614 99.1926 37.8226 99.1926 37.8226C99.1926 37.8226 89.4241 33.5616 93.5809 26.807C97.7377 20.0525 106.883 24.7286 107.714 26.9112L109.065 24.1056C109.065 24.1056 106.051 22.1309 101.583 21.7152C97.1142 21.2995 91.1905 22.4424 89.1121 28.0546C85.9945 36.4724 93.4768 39.9015 97.1142 42.2919C97.1142 42.2919 106.259 47.1759 102.102 53.6189C97.9461 60.062 90.0477 57.9836 84.8517 54.6576Z" fill="#153053" fill-opacity="0.6"/>
<path d="M49.3115 17.4547C49.3115 17.4547 66.5623 3.11378 96.6991 4.25664C106.214 4.61741 118.211 7.8941 124.654 15.8957C124.654 15.8957 137.851 31.4837 120.497 52.9954C120.497 52.9954 139.618 38.4466 132.032 17.8704C132.032 17.8704 127.252 1.86674 99.401 0.100354C99.401 0.100354 69.9914 -2.29006 49.3115 17.4547Z" fill="#153053" fill-opacity="0.6"/>
<path d="M43.548 7.22226C43.548 7.22226 17.3684 17.8144 10.5738 37.7989C4.61005 55.3385 16.169 64.5784 25.762 69.1745C25.762 69.1745 65.1316 86.7614 117.691 55.3852C117.691 55.3852 95.7364 74.4809 57.3383 77.368C57.3383 77.368 15.0626 83.2276 2.78054 58.9827C-12.6094 28.6062 47.4056 5.64883 43.548 7.22226Z" fill="#153053" fill-opacity="0.6"/>
</g>
<defs>
<clipPath id="clip0">
<rect x="0.25" width="133.562" height="78" fill="white"/>
</clipPath>
</defs>
</svg>

<svg width="134" height="78" fill="none" xmlns="http://www.w3.org/2000/svg"><g clip-path="url(#clip0)" fill="#153053" fill-opacity=".6"><path d="M29.67 22.495l-.208.78s4.884-.105 4.053 3.429L28.423 59.75h22.55l1.352-7.586h-.831s-.832 5.196-6.86 5.196h-8.522s-2.91.208-2.286-3.221l2.226-13.302h6.92s3.43-.104 2.286 4.884h1.144l1.869-12.16h-.934s0 5.614-4.78 5.614h-6.226l2.07-12.367s-.105-2.494 3.948-2.494h6.235s4.573.208 4.157 4.469h1.04l1.038-6.287H29.67v-.001zm29.93-.052l-1.144 6.65h1.04c0-4.987 6.234-4.78 6.234-4.78h4.905l-5.632 35.23h4.884l5.584-35.23h5.432c4.78 0 3.949 4.26 3.949 4.26h1.141l1.041-6.13H59.6zm25.252 32.215l-.416 3.43s16.727 6.184 22.343-4.262c5.196-9.665-7.586-16.003-7.586-16.003s-9.769-4.261-5.612-11.016 13.302-2.078 14.133.104l1.351-2.805s-3.014-1.975-7.482-2.39c-4.469-.417-10.392.726-12.47 6.339-3.118 8.417 4.364 11.846 8.001 14.237 0 0 9.145 4.884 4.988 11.327-4.156 6.443-12.054 4.365-17.25 1.039z"/><path d="M49.312 17.455S66.561 3.114 96.698 4.257c9.515.36 21.512 3.637 27.955 11.639 0 0 13.197 15.588-4.157 37.1 0 0 19.121-14.55 11.535-35.126 0 0-4.78-16.003-32.631-17.77 0 0-29.41-2.39-50.09 17.355z"/><path d="M43.548 7.222S17.368 17.814 10.574 37.8C4.61 55.34 16.169 64.58 25.762 69.175c0 0 39.37 17.587 91.929-13.789 0 0-21.955 19.096-60.353 21.983 0 0-42.275 5.86-54.557-18.385-15.39-30.377 44.625-53.334 40.767-51.76z"/></g><defs><clipPath id="clip0"><path fill="#fff" d="M.25 0h133.562v78H.25z"/></clipPath></defs></svg>
